X:1
T:Hail, ever hail
T:Hail, ever hail
T:William Shrubsole
T:2. Down from celestial climes of day He hastes to tread our ball, Glory illumines all the way, O crown him Lord of all! 3. Hark! loud hosannahs from the song The melting airs inthrall, A Saviour angels waft along, And shout him Lord of all. 4. Wrapt in their folded vests of light They seek the sordid stall, Gaze with emotions of delight, And own him Lord of all.
T:5. Shepherds, to you a herald flies, Obey the early call, Immanuel in a manger lies, Go crown him Lord of all. 6. He comes, he comes, our world to bless, To ransom every soul From shades of endless wretchedness: O crown him Lord of all! 7. The sceptre, robe, and throne prepare, Attend, ye great and small, With acclamations rend the air, And crown him Lord of all.
T:by IMSLP - Pubblico dominio
C:William Shrubsole
Z:by IMSLP - Pubblico dominio
%%score [ 1 2 3 4 ]
L:1/8
Q:1/4=57
M:2/2
K:C
V:1 treble nm="Soprano"
V:2 treble nm="Soprano"
V:3 treble-8 nm="Tenor"
V:4 bass nm="Bass"
V:1
 c2 | e2 f2 e2 B2 | c2 (GA) B2 c2 | c2 (cA) G2 F2 | F4 z2 || c2 | e2 f2 e2 B2 | c2 (GA) B2 G2 | %8
 c4 !fermata!c4 | c4 !fermata!c4 | B4 !fermata!B4 | c4 c4 | c4 B4 | c6 :| %14
V:2
 e2 | g2 a2 g2 g2 | g2 (gf) g2 g2 | f2 c2 c2 B2 | c4 z2 || e2 | g2 a2 g2 g2 | g2 (gf) g2 g2 | %8
 c4 !fermata!c4 | z8 | z8 | g4 a4 | g4 f4 | e6 :| %14
V:3
 G2 | c2 c2 c2 d2 | e2 (dc) d2 G2 | A2 (GF) E2 D2 | C4 z2 || G2 | c2 c2 c2 d2 | e2 (dc) d2 G2 | %8
 c4 !fermata!c4 | e4 !fermata!e4 | g4 !fermata!g4 | e4 f4 | e4 d4 | c6 :| %14
V:4
"^Hail!" C,2 |"^ever" C,2 F,2"^hail!" C,2 G,2 |"^auspicious" C2 F,2"^morn." G,2"^The" E,2 | %3
"^brightest" F,2 F,2"^since" G,2"^our" G,,2 |"^fall:" C,4 z2 ||"^Mortals," C,2 | %6
 C,2"^exult!" F,2 C,2"^the" G,2 |"^Saviourìs" C2 F,2"^born" G,2"^O" E,2 | %8
"^crown" C4"^him" !fermata!C4 |"^crown" C,4"^him" !fermata!C,4 |"^crown" G,,4"^him" !fermata!G,,4 | %11
"^crown" C4"^him" F,4 |"^Lord" G,4"^of" G,4 |"^all!" C,6 :| %14

